X:64
T:Mon père m'a mariée à un vieillard
R:Chanson
O:France
B:Le livre des Chansons (Henri Davenson) n°64
Z:<anamnese@caramail.com> -- http://anamnese.fr.st
M:C|
L:1/4
Q:1/4=110
K:G
B A/ B/ | FGAF | G2 B A/ B/ | FGAF |GGGd | ddcc | BBBG | AB (c/B/) (A/G/) |
A2 BA/B/ | GF G/ A/ B/ G/ | AAB A/ B/ | FGAF | G2 ||
W:Mon père m'a mariée
W:J'entends le moulin tique taque.
W:A un vieillard il m'a donnée, il n'a ni maille ni denier.
W:J'entends le moulin tique tique taque.
W:J'entends le moulin taqueter.
W: /.../

